X: 3
T:6/8 du Petit Sarny
M:6/8
L:1/8
C:Eric Favreau
R:jig
Z:Chris Corrigan, 15/4/2000
K:G
||: ~B3 Bcd | ~B3 BAG | EFG AGA | BGE D3 |
~B3 Bcd | ~B3 BAG | EFG AGA |1 BGF G3 :|2 BGF GAB
||: dBd gdB | A3 BGE | DBB Dcc | DBB ABc |
dBd gdB | A3 BGE |1 Ggf edB AGF | ~G3 GBc :|2
DB,D ~E3 FEF | ~G3- GBc ||:
dBd g2f | e3 gdc | Bdg gfg | ~a3- aBc |
dBd g2f | e3 gdc | Bdg fef |1 ~g3- gBc :|2 ~g3- gGA ||

